lib/functional/games/soccer-ball.svg

<svg xmlns="http://www.w3.org/2000/svg" fill="none" stroke="currentColor" aria-hidden="true" viewBox="0 0 32 32"><g id="Icon-SoccerBall"><g clip-path="url(#clip0_11_2616)"><g id="size=md (32px)"><g id="SoccerBall"><path id="Vector" stroke-linecap="round" stroke-linejoin="round" stroke-width="2" d="M16 28C22.6274 28 28 22.6274 28 16C28 9.37258 22.6274 4 16 4C9.37258 4 4 9.37258 4 16C4 22.6274 9.37258 28 16 28Z"/><path id="Vector_2" stroke-linecap="round" stroke-linejoin="round" stroke-width="2" d="M16.0002 10.75L11.0127 14.375L12.9127 20.25H19.0877L20.9877 14.375L16.0002 10.75Z"/><path id="Vector_3" stroke-linecap="round" stroke-linejoin="round" stroke-width="2" d="M16 8V10.75"/><path id="Vector_4" stroke-linecap="round" stroke-linejoin="round" stroke-width="2" d="M20.375 4.82501L16 8.00001L11.625 4.82501"/><path id="Vector_5" stroke-linecap="round" stroke-linejoin="round" stroke-width="2" d="M8.3877 13.525L11.0127 14.375"/><path id="Vector_6" stroke-linecap="round" stroke-linejoin="round" stroke-width="2" d="M6.7252 8.38751L8.3877 13.525L4.0127 16.7125"/><path id="Vector_7" stroke-linecap="round" stroke-linejoin="round" stroke-width="2" d="M11.2998 22.475L12.9123 20.25"/><path id="Vector_8" stroke-linecap="round" stroke-linejoin="round" stroke-width="2" d="M5.8877 22.475H11.3002L12.9752 27.6125"/><path id="Vector_9" stroke-linecap="round" stroke-linejoin="round" stroke-width="2" d="M20.7004 22.475L19.0879 20.25"/><path id="Vector_10" stroke-linecap="round" stroke-linejoin="round" stroke-width="2" d="M19.0254 27.6125L20.7004 22.475H26.1129"/><path id="Vector_11" stroke-linecap="round" stroke-linejoin="round" stroke-width="2" d="M23.6123 13.525L20.9873 14.375"/><path id="Vector_12" stroke-linecap="round" stroke-linejoin="round" stroke-width="2" d="M27.9873 16.7125L23.6123 13.525L25.2748 8.38751"/></g></g></g></g><defs><clipPath id="clip0_11_2616"><rect width="32" height="32" fill="white" rx="5"/></clipPath></defs></svg>

<svg xmlns="http://www.w3.org/2000/svg" fill="none" stroke="currentColor" aria-hidden="true" viewBox="0 0 32 32"><g stroke="#101828" stroke-linecap="round" stroke-linejoin="round" stroke-width="2" clip-path="url(#a)"><path d="M16 28c6.627 0 12-5.373 12-12S22.627 4 16 4 4 9.373 4 16s5.373 12 12 12Z"/><path d="m16 10.75-4.987 3.625 1.9 5.875h6.175l1.9-5.875L16 10.75ZM16 8v2.75m4.375-5.925L16 8l-4.375-3.175m-3.237 8.7 2.625.85M6.725 8.388l1.663 5.137-4.375 3.187m7.287 5.763 1.612-2.225m-7.024 2.225H11.3l1.675 5.137m7.725-5.137-1.612-2.225m-.063 7.363 1.675-5.138h5.413m-2.501-8.95-2.625.85m7 2.337-4.375-3.187 1.663-5.137"/></g><defs><clipPath id="a"><rect width="32" height="32" fill="#fff" rx="5"/></clipPath></defs></svg>
